X: 37662
T: Snowflake, The
R: hornpipe
M: 4/4
K: Amajor
|:(3EFG|A>GA>E (3ABc e>c|B>^AB>F B2 d>c|B2 d>e f2 a>f|(3eag (3fed (3efe (3dcB|
(3ABA G>B A>ce>c|(3BcB ^A>c B2 (3efg|a>ga>e f>dB>G|A2 G2 A2:|
|:(3Bcd|e>fe>d c>ea>g|f>ed>c d>ef>g|a>gf>e d>cB>A|G>EB>G E>cd>^d|
e2 (3fe^d e2 a>g|f2 (3edc d2 (3efg|a>ga>e f>d (3BAG|A2 E2 [A,2A2]:|

